img/solution-writing.svg

<svg fill="none" height="32" viewBox="0 0 32 32" width="32" xmlns="http://www.w3.org/2000/svg"><path d="m15.3331 27h-6.6665c-1.47273 0-2.66661-1.2312-2.6666-2.75l.0001-16.50001c.00001-1.51878 1.19389-2.74999 2.66661-2.74999h12.00009c1.4727 0 2.6666 1.23122 2.6666 2.75001v5.49999m-2 7.4938v-.0724m4.6666.1308s-1.1068 3.3684-4.6666 3.3096c-3.5597-.0588-4.6665-3.3096-4.6665-3.3096s1.0619-3.4272 4.6665-3.4272c3.6047 0 4.6666 3.4272 4.6666 3.4272z" stroke="#fff" stroke-linecap="round" stroke-linejoin="round" stroke-width="2"/></svg>

<svg width="32" height="32" viewBox="0 0 32 32" fill="none" xmlns="http://www.w3.org/2000/svg">
<path d="M15.3331 27H8.6666C7.19387 27 5.99999 25.7688 6 24.25L6.0001 7.74999C6.00011 6.23121 7.19399 5 8.66671 5H20.6668C22.1395 5 23.3334 6.23122 23.3334 7.75001V13.25M21.3334 20.7438V20.6714M26 20.8022C26 20.8022 24.8932 24.1706 21.3334 24.1118C17.7737 24.053 16.6669 20.8022 16.6669 20.8022C16.6669 20.8022 17.7288 17.375 21.3334 17.375C24.9381 17.375 26 20.8022 26 20.8022Z" stroke="white" stroke-width="2" stroke-linecap="round" stroke-linejoin="round"/>
</svg>
